exported-svg/wifi-off.svg

<svg height="24" viewBox="0 0 24 24" width="24" xmlns="http://www.w3.org/2000/svg"><path d="m16.292983 17.0000897c-.1699246.1364794-.4161008.1499896-.6025663.0175149-1.9074246-1.3551329-4.4634088-1.3551329-6.37083337 0-.22511379.1599324-.53725545.1070925-.69718791-.1180213s-.10709255-.5372554.11802125-.6971879c1.75091123-1.2439377 3.96423843-1.5216805 5.92164343-.8332285l-4.1682799-4.1682799c-1.71908109.3396344-3.32655204 1.1068821-4.67306178 2.2327009-.21184975.1771279-.52717845.1489803-.70430634-.0628695-.17712789-.2118497-.14898026-.5271784.0628695-.7043063 1.30674398-1.0925706 2.83777926-1.876956 4.47942163-2.3006021l-3.15769013-3.15769014c-1.55209508.65042299-2.98787518 1.55099692-4.24987127 2.66650676-.20690057.18288458-.52288385.16341578-.70576843-.04348481-.18288457-.20690057-.16341576-.52288385.04348481-.70576843 1.24201895-1.09785153 2.64210602-2.00020457 4.15195172-2.67745669l-4.5943633-4.5943633c-.19526215-.19526215-.19526215-.51184463 0-.70710678s.51184463-.19526215.70710678 0l5.11223112 5.11223112c.00540619.00516717.01070506.01046503.01589126.01589126l3.97762723 3.97762721c.0457968.0324888.0861564.0726444.1189874.1189874l12.775263 12.775263c.1952621.1952622.1952621.5118446 0 .7071068-.1952622.1952621-.5118446.1952621-.7071068 0zm.7077212-4.9907465c-.2481654-.1211137-.3511612-.4204736-.2300474-.668639.1211137-.2481654.4204736-.3511612.668639-.2300474.8565368.418021 1.6574775.9414428 2.3842048 1.5580987.2105555.1786644.2364083.4941895.0577439.7047451-.1786644.2105555-.4941895.2364083-.7047451.0577439-.6632021-.5627524-1.3941305-1.0404205-2.1757952-1.4219013zm-5.7505455-5.96095853c-.2752503.02217903-.5163643-.18297572-.5385434-.45822598-.022179-.27525025.1829758-.51636433.458226-.53854336 4.4640396-.35970206 8.8825296 1.11064636 12.2409375 4.0734375.2070776.18268409.2268525.49864837.0441684.70572598-.1826841.20707759-.4986484.22685249-.705726.04416836-3.154868-2.78322804-7.3055708-4.16446443-11.4990625-3.8265625zm.8962879 14.80516873c-.1952621-.1952622-.1952621-.5118446 0-.7071068.1952622-.1952621.5118446-.1952621.7071068 0 .1952621.1952622.1952621.5118446 0 .7071068-.1952622.1952621-.5118446.1952621-.7071068 0z"/></svg>

<?xml version="1.0" encoding="UTF-8"?>
<svg width="24px" height="24px" viewBox="0 0 24 24" version="1.1" xmlns="http://www.w3.org/2000/svg" xmlns:xlink="http://www.w3.org/1999/xlink">
    <!-- Generator: Sketch 55.2 (78181) - https://sketchapp.com -->
    <title>wifi-off</title>
    <desc>Created with Sketch.</desc>
    <g id="wifi-off" stroke="none" stroke-width="1" fill="none" fill-rule="evenodd">
        <path d="M16.292983,17.0000897 C16.1230584,17.1365691 15.8768822,17.1500793 15.6904167,17.0176046 C13.7829921,15.6624717 11.2270079,15.6624717 9.31958333,17.0176046 C9.09446954,17.177537 8.78232788,17.1246971 8.62239542,16.8995833 C8.46246296,16.6744695 8.51530287,16.3623279 8.74041667,16.2023954 C10.4913279,14.9584577 12.7046551,14.6807149 14.6620601,15.3691669 L10.4937802,11.200887 C8.77469911,11.5405214 7.16722816,12.3077691 5.82071842,13.4335879 C5.60886867,13.6107158 5.29353997,13.5825682 5.11641208,13.3707184 C4.93928419,13.1588687 4.96743182,12.84354 5.17928158,12.6664121 C6.48602556,11.5738415 8.01706084,10.7894561 9.65870321,10.36581 L6.50101308,7.20811986 C4.948918,7.85854285 3.5131379,8.75911678 2.25114181,9.87462662 C2.04424124,10.0575112 1.72825796,10.0380424 1.54537338,9.83114181 C1.36248881,9.62424124 1.38195762,9.30825796 1.58885819,9.12537338 C2.83087714,8.02752185 4.23096421,7.12516881 5.74080991,6.44791669 L1.14644661,1.85355339 C0.951184464,1.65829124 0.951184464,1.34170876 1.14644661,1.14644661 C1.34170876,0.951184464 1.65829124,0.951184464 1.85355339,1.14644661 L6.96578451,6.25867773 C6.9711907,6.2638449 6.97648957,6.26914276 6.98167577,6.27456899 L10.959303,10.2521962 C11.0050998,10.284685 11.0454594,10.3248406 11.0782904,10.3711836 L23.8535534,23.1464466 C24.0488155,23.3417088 24.0488155,23.6582912 23.8535534,23.8535534 C23.6582912,24.0488155 23.3417088,24.0488155 23.1464466,23.8535534 L16.292983,17.0000897 Z M17.0007042,12.0093432 C16.7525388,11.8882295 16.649543,11.5888696 16.7706568,11.3407042 C16.8917705,11.0925388 17.1911304,10.989543 17.4392958,11.1106568 C18.2958326,11.5286778 19.0967733,12.0520996 19.8235006,12.6687555 C20.0340561,12.8474199 20.0599089,13.162945 19.8812445,13.3735006 C19.7025801,13.5840561 19.387055,13.6099089 19.1764994,13.4312445 C18.5132973,12.8684921 17.7823689,12.390824 17.0007042,12.0093432 Z M11.2501587,6.04838467 C10.9749084,6.0705637 10.7337944,5.86540895 10.7116153,5.59015869 C10.6894363,5.31490844 10.8945911,5.07379436 11.1698413,5.05161533 C15.6338809,4.69191327 20.0523709,6.16226169 23.4107788,9.12505283 C23.6178564,9.30773692 23.6376313,9.6237012 23.4549472,9.83077881 C23.2722631,10.0378564 22.9562988,10.0576313 22.7492212,9.87494717 C19.5943532,7.09171913 15.4436504,5.71048274 11.2501587,6.04838467 Z M12.1464466,20.8535534 C11.9511845,20.6582912 11.9511845,20.3417088 12.1464466,20.1464466 C12.3417088,19.9511845 12.6582912,19.9511845 12.8535534,20.1464466 C13.0488155,20.3417088 13.0488155,20.6582912 12.8535534,20.8535534 C12.6582912,21.0488155 12.3417088,21.0488155 12.1464466,20.8535534 Z" id="Combined-Shape" fill="#000000" fill-rule="nonzero"></path>
    </g>
</svg>
